assets/img/tools/PR.svg

<svg width="39" height="38" viewBox="0 0 39 38" fill="none" xmlns="http://www.w3.org/2000/svg">
<path d="M38.4727 6.26252V31.2025C38.4327 31.3725 38.3926 31.5325 38.3626 31.7025C37.7126 35.0425 35.0227 37.2525 31.5627 37.2525C23.5027 37.2525 15.4327 37.2525 7.37265 37.2525C6.99265 37.2525 6.60266 37.2425 6.22266 37.1825C2.81266 36.6225 0.472656 33.8825 0.472656 30.4425C0.472656 22.6425 0.472656 14.8325 0.472656 7.03252C0.472656 6.60252 0.502642 6.16252 0.582642 5.74252C1.21264 2.47252 3.86265 0.23252 7.21265 0.22252C15.3726 0.20252 23.5326 0.20252 31.7026 0.22252C34.9126 0.22252 37.5126 2.31252 38.2626 5.37252C38.3326 5.67252 38.3926 5.97252 38.4526 6.27252L38.4727 6.26252ZM12.9326 21.0925C13.1626 21.0925 13.3327 21.0925 13.5027 21.0925C14.7527 21.1325 15.9927 21.0925 17.2227 20.8025C21.7427 19.7325 22.4726 14.3825 20.2626 11.8025C19.0526 10.3925 17.4426 9.76252 15.6426 9.70252C13.7526 9.64252 11.8627 9.73252 9.97266 9.73252C9.60266 9.73252 9.52264 9.85252 9.52264 10.2025C9.53264 13.1525 9.52264 16.1125 9.52264 19.0625C9.52264 21.3525 9.52264 23.6325 9.52264 25.9225C9.52264 26.2825 9.63264 26.3925 9.98264 26.3825C10.8126 26.3625 11.6426 26.3625 12.4626 26.3825C12.8126 26.3825 12.9426 26.2925 12.9326 25.9225C12.9126 25.1925 12.9326 24.4625 12.9326 23.7325C12.9326 22.8725 12.9326 22.0025 12.9326 21.0925ZM27.0027 15.2725C26.9527 14.9225 26.8826 14.5325 26.8226 14.1425C26.7726 13.8425 26.6026 13.6925 26.2926 13.7025C25.4926 13.7025 24.6826 13.7125 23.8826 13.7025C23.6126 13.7025 23.5426 13.7925 23.5526 14.0525C23.5926 14.8325 23.6326 15.6125 23.6326 16.3825C23.6426 19.5625 23.6426 22.7325 23.6326 25.9125C23.6326 26.2625 23.7327 26.3925 24.0927 26.3825C24.9527 26.3625 25.8227 26.3825 26.6927 26.3825C27.1827 26.3825 27.1927 26.3825 27.1927 25.9025C27.1927 23.4925 27.2126 21.0825 27.1826 18.6725C27.1826 18.1425 27.3827 17.8425 27.8127 17.6225C27.9227 17.5625 28.0326 17.5125 28.1426 17.4625C29.0026 17.0925 29.9126 16.9125 30.8526 16.9325C31.2226 16.9325 31.3227 16.8025 31.3127 16.4625C31.2927 15.6025 31.3027 14.7325 31.3127 13.8625C31.3127 13.5625 31.2226 13.4425 30.9126 13.4625C30.1626 13.4925 29.4326 13.6525 28.7926 14.0425C28.1726 14.4225 27.6126 14.8725 27.0226 15.2825L27.0027 15.2725Z" fill="#FD523A"/>
<path d="M12.9424 12.7525C14.0724 12.7425 15.1624 12.6025 16.2224 12.9325C17.3524 13.2725 17.9824 14.1125 18.0224 15.2825C18.0624 16.4625 17.4624 17.3925 16.3824 17.8025C15.3424 18.2025 14.2524 18.1725 13.1624 18.1225C13.0824 18.1225 12.9524 17.9825 12.9524 17.9025C12.9424 16.2125 12.9524 14.5125 12.9524 12.7525H12.9424Z" fill="#FD523A"/>
</svg>

<?xml version="1.0" encoding="UTF-8"?>
<svg id="Capa_1" xmlns="http://www.w3.org/2000/svg" version="1.1" viewBox="0 0 39 38">
  <!-- Generator: Adobe Illustrator 29.0.1, SVG Export Plug-In . SVG Version: 2.1.0 Build 192)  -->
  <defs>
    <style>
      .st0 {
        fill: #34353a;
      }
    </style>
  </defs>
  <path class="st0" d="M38.5,6.3v24.9c0,.2,0,.3-.1.5-.6,3.3-3.3,5.5-6.8,5.5H7.4c-.4,0-.8,0-1.1,0-3.4-.6-5.8-3.3-5.8-6.7V7c0-.4,0-.9.1-1.3C1.2,2.5,3.9.2,7.2.2c8.2,0,16.3,0,24.5,0,3.2,0,5.8,2.1,6.6,5.1,0,.3.1.6.2.9h0ZM12.9,21.1h.6c1.2,0,2.5,0,3.7-.3,4.5-1.1,5.2-6.4,3-9-1.2-1.4-2.8-2-4.6-2.1-1.9,0-3.8,0-5.7,0s-.5.1-.5.5c0,2.9,0,5.9,0,8.9v6.9c0,.4.1.5.5.5.8,0,1.7,0,2.5,0,.4,0,.5,0,.5-.5,0-.7,0-1.5,0-2.2v-2.6ZM27,15.3c0-.4-.1-.7-.2-1.1,0-.3-.2-.4-.5-.4-.8,0-1.6,0-2.4,0-.3,0-.3,0-.3.3,0,.8,0,1.6,0,2.3,0,3.2,0,6.4,0,9.5,0,.4.1.5.5.5.9,0,1.7,0,2.6,0s.5,0,.5-.5c0-2.4,0-4.8,0-7.2,0-.5.2-.8.6-1.1.1,0,.2-.1.3-.2.9-.4,1.8-.5,2.7-.5.4,0,.5-.1.5-.5,0-.9,0-1.7,0-2.6,0-.3,0-.4-.4-.4-.8,0-1.5.2-2.1.6-.6.4-1.2.8-1.8,1.2h0Z"/>
  <path class="st0" d="M12.9,12.8c1.1,0,2.2-.1,3.3.2,1.1.3,1.8,1.2,1.8,2.4,0,1.2-.6,2.1-1.6,2.5-1,.4-2.1.4-3.2.3,0,0-.2-.1-.2-.2,0-1.7,0-3.4,0-5.2h0Z"/>
</svg>
